!!!OTL: LORENZ LORENZ LORENZ
!!!ARE: Europa, Mitteleuropa, Deutschland
!!!SCT: F0343
!!!YEM: Copyright 1995, estate of Helmut Schaffrath.
**kern
*ICvox
*Ivox
*M4/4
*k[f#c#]
*D:
=1
{2d
2g
=2
2a
4d
4r}
=3
{2a
2b
=4
2cc#
4dd
4r}
=5
{4ff#
8ff#
8ff#
4gg
4gg
=6
8ee
8ee
8ee
8ee
4ff#
4r}
=7
{4dd
8dd
8dd
4ee
4ee
=8
8a
8a
8a
8a
4dd
4r}
==
!!!AGN: Jugend - Lied, Geselligkeit, Scherz, Kanon
!!!ONB: ESAC (Essen Associative Code) Database: FINK
!!!AMT: simple quadruple
!!!AIN: vox
!!!EED: Helmut Schaffrath
!!!EEV: 1.0
*-
